X: 26111
T: McGoldrick's
R: reel
M: 4/4
K: Dmajor
d2Ad cdAd|(3Bcd ef gefe|d2Ad cdAF|GEEF GABc|
d2Ad cdAd|(3Bcd ef g2fg|afge fdec|dAAF GABc:|
|:d2fd Adfd|d2fa gece|d2fd Adfd|ceAc eAce|
d2fd Adfd|(3Bcd ef g2fg|afge fdec|dAAF GABc:|

